public/home/dune-5.svg

<svg width="1280" height="371" viewBox="0 0 1280 371" fill="none" xmlns="http://www.w3.org/2000/svg">
<g filter="url(#filter0_i_2032_20)">
<path d="M0 2.87543C0 2.87543 14.9327 -0.148873 37.8949 0.865492C60.8571 1.87986 100.621 15.6927 136.909 14.9351C173.196 14.1774 213.77 -1.56366 252.858 0.126944C291.946 1.81755 331.07 28.9089 362.646 34.3502C397.972 40.4364 463.982 34.8336 499.103 35.7453C554.635 37.187 581.323 79.0768 649.549 83.2602C702.256 86.492 742.424 75.7489 813.685 81.8365C872.561 86.866 888.439 100.955 946.556 105.575C985.591 108.678 1004.02 94.2826 1057.07 94.733C1098.09 95.0812 1155.09 120.394 1188.88 124.988C1219.72 129.179 1257.22 125.818 1280 124.353V370.155H0.635473L0 2.87543Z" fill="url(#paint0_radial_2032_20)"/>
</g>
<path d="M194.024 7.59473C213.594 3.77516 233.403 0.286437 252.814 1.12598C272.166 1.96295 291.574 9.09257 310.188 16.7568C328.726 24.3896 346.547 32.591 362.477 35.3359C380.248 38.3978 405.676 38.514 430.973 37.9883C456.326 37.4614 481.547 36.2901 499.077 36.7451C526.584 37.4592 546.945 48.1771 569.115 59.3672C591.275 70.5518 615.159 82.1538 649.488 84.2588C675.917 85.8793 699.207 83.9949 724.719 82.4756C750.238 80.9558 778.04 79.7953 813.6 82.833C842.953 85.3405 861.577 90.1037 880.158 94.8291C898.766 99.5612 917.331 104.256 946.477 106.572C966.143 108.136 980.629 105.285 996.749 102.13C1012.85 98.9782 1030.64 95.5091 1057.06 95.7334C1077.41 95.9062 1101.79 102.278 1125.4 109.228C1148.94 116.153 1171.75 123.668 1188.75 125.979C1219.23 130.122 1256.17 126.916 1279 125.421V369.154H1.63379L1.00098 3.70801C1.4411 3.63072 2.05843 3.5266 2.84277 3.40723C4.58435 3.14216 7.14998 2.79808 10.4316 2.48535C16.9957 1.85983 26.4225 1.35943 37.8506 1.86426C49.2299 2.36694 64.7876 6.04491 82.208 9.54492C99.5618 13.0315 118.668 16.3159 136.93 15.9346C155.181 15.5535 174.499 11.4056 194.024 7.59473Z" stroke="url(#paint1_linear_2032_20)" stroke-opacity="0.4" stroke-width="2" stroke-linecap="round" stroke-linejoin="round"/>
<defs>
<filter id="filter0_i_2032_20" x="0" y="0" width="1280" height="374.155" filterUnits="userSpaceOnUse" color-interpolation-filters="sRGB">
<feFlood flood-opacity="0" result="BackgroundImageFix"/>
<feBlend mode="normal" in="SourceGraphic" in2="BackgroundImageFix" result="shape"/>
<feColorMatrix in="SourceAlpha" type="matrix" values="0 0 0 0 0 0 0 0 0 0 0 0 0 0 0 0 0 0 127 0" result="hardAlpha"/>
<feOffset dy="4"/>
<feGaussianBlur stdDeviation="12.5"/>
<feComposite in2="hardAlpha" operator="arithmetic" k2="-1" k3="1"/>
<feColorMatrix type="matrix" values="0 0 0 0 0 0 0 0 0 0 0 0 0 0 0 0 0 0 0.25 0"/>
<feBlend mode="normal" in2="shape" result="effect1_innerShadow_2032_20"/>
</filter>
<radialGradient id="paint0_radial_2032_20" cx="0" cy="0" r="1" gradientTransform="matrix(-188.447 65.1512 -63.341 -193.833 244.628 29.5946)" gradientUnits="userSpaceOnUse">
<stop stop-color="#BA997F"/>
<stop offset="1" stop-color="#B3826A"/>
</radialGradient>
<linearGradient id="paint1_linear_2032_20" x1="428.767" y1="-72.0785" x2="1106.38" y2="140.466" gradientUnits="userSpaceOnUse">
<stop stop-color="#DCA796"/>
<stop offset="0.706731" stop-color="#D09D73" stop-opacity="0.8"/>
</linearGradient>
</defs>
</svg>

<svg xmlns="http://www.w3.org/2000/svg" width="1280" height="371" fill="none" viewBox="0 0 1280 371"><g filter="url(#a)"><path fill="url(#b)" d="M0 2.875S14.933-.149 37.895.865s62.726 14.828 99.014 14.07S213.77-1.564 252.858.127 331.07 28.909 362.646 34.35c35.326 6.086 101.336.484 136.457 1.395 55.532 1.442 82.22 43.332 150.446 47.515 52.707 3.232 92.875-7.511 164.136-1.424 58.876 5.03 74.754 19.119 132.871 23.739 39.035 3.103 57.464-11.292 110.514-10.842 41.02.348 98.02 25.661 131.81 30.255 30.84 4.191 68.34.83 91.12-.635v245.802H.635z"/></g><path stroke="url(#c)" stroke-linecap="round" stroke-linejoin="round" stroke-opacity=".4" stroke-width="2" d="M194.024 7.595c19.57-3.82 39.379-7.309 58.79-6.469 19.352.837 38.76 7.967 57.374 15.63 18.538 7.634 36.359 15.835 52.289 18.58 17.771 3.062 43.199 3.178 68.496 2.652 25.353-.527 50.574-1.698 68.104-1.243 27.507.714 47.868 11.432 70.038 22.622 22.16 11.185 46.044 22.787 80.373 24.892 26.429 1.62 49.719-.264 75.231-1.783 25.519-1.52 53.321-2.68 88.881.357 29.353 2.508 47.977 7.27 66.558 11.996 18.608 4.732 37.173 9.427 66.319 11.743 19.666 1.564 34.152-1.287 50.272-4.442 16.101-3.152 33.891-6.62 60.311-6.397 20.35.173 44.73 6.545 68.34 13.495 23.54 6.925 46.35 14.44 63.35 16.751 30.48 4.143 67.42.937 90.25-.558v243.733H1.634L1 3.708a82 82 0 0 1 1.842-.3c1.741-.266 4.307-.61 7.589-.923 6.564-.625 15.99-1.126 27.419-.62 11.379.502 26.937 4.18 44.357 7.68 17.354 3.486 36.46 6.77 54.722 6.39 18.251-.382 37.569-4.53 57.094-8.34"/><defs><radialGradient id="b" cx="0" cy="0" r="1" gradientTransform="matrix(-188.447 65.1512 -63.341 -193.833 244.628 29.595)" gradientUnits="userSpaceOnUse"><stop stop-color="#ba997f"/><stop offset="1" stop-color="#b3826a"/></radialGradient><linearGradient id="c" x1="428.767" x2="1106.38" y1="-72.079" y2="140.466" gradientUnits="userSpaceOnUse"><stop stop-color="#dca796"/><stop offset=".707" stop-color="#d09d73" stop-opacity=".8"/></linearGradient><filter id="a" width="1280" height="374.155" x="0" y="0" color-interpolation-filters="sRGB" filterUnits="userSpaceOnUse"><feFlood flood-opacity="0" result="BackgroundImageFix"/><feBlend in="SourceGraphic" in2="BackgroundImageFix" result="shape"/><feColorMatrix in="SourceAlpha" result="hardAlpha" values="0 0 0 0 0 0 0 0 0 0 0 0 0 0 0 0 0 0 127 0"/><feOffset dy="4"/><feGaussianBlur stdDeviation="12.5"/><feComposite in2="hardAlpha" k2="-1" k3="1" operator="arithmetic"/><feColorMatrix values="0 0 0 0 0 0 0 0 0 0 0 0 0 0 0 0 0 0 0.25 0"/><feBlend in2="shape" result="effect1_innerShadow_2032_20"/></filter></defs></svg>
